X: 18521
T: MISS TILNEY LONG'S FAVORITE
B: Button & Whitaker "Button and Whitaker's Selection of Dances, Reels and Waltzes" v.18 p.52 #1
S: http://imslp.org/wiki/Button_and_Whitaker%27s_Selection_of_Dances,_Reels_and_Waltzes_(Various)
Z: 2014 John Chambers <jc:trillian.mit.edu>
N: Bar 15 is missing dots in the bass voice; fixed.
M: 9/8
L: 1/8
K: Bb
% - - - - - - - - - - - - - - - - - - - - - - - - -
% Staff layout changed to fit our page size:
V: 1 clef=treble middle=B
F |\
f2d {e}dcd Bcd | f2d {e}dcd Bcd |\
e3- efe dcB | ABc Bcd c2F |\
f2d {e}dcd Bcd | f2d {e}dcd Bcd |
ede cde fdB | G[ge][fd] [ec][dB][cA] B2 |]\
B |\
ABc FGF FGA | Bcd {e}dcd fdB |\
Ggf edc BAG |
FGA BFd c2B |\
ABc FAG FGA | Bcd dcd fdB |\
GAB cde fdB | G[ge][fd] [ec][dB][cA] B2 |]
% - - - - - - - - - - - - - - - - - - - - - - - - -
% Original staff layout preserved:
V: 2 clef=bass middle=d
z |\
[B3B,3] [d'3b3] [d'3b3] | [B3B,3] [d'3b3] [d'3b3] |\
[f3F3] [c'3f3] [d'3b3] | [e'3c'3] [d'3b3] [c'2f2]z |\
[B3B,3] [d'3b3] [d'3b3] | [B3B,3] [d'3b3] [d'3b3] |\
[f3F3] [c'3f3] [d'3b3] | [c'3e3] [c'2f2][c'f] [d'2b2] |]
z |\
[f3F3] [e'3c'3f3] [e'3c'3f3] | B3 [d'3b3] [d'3b3] |\
ee'd' c'ba gfe | d2e d2B f2z |\
[f3F3] [e'3c'3f3] [e'3c'3f3] | B3 [d'3b3] [d'3b3] |\
[e6E6] [d3D3] | [e3E3] [f3F3] B2 |]
% - - - - - - - - - - - - - - - - - - - - - - - - -
%%begintext align
%% Set & hands across back again .|
%% down the mid: up again
%% cast round the top Cu: & turn your part.r .|
%%endtext
% - - - - - - - - - - - - - - - - - - - - - - - - -
%%sep 2 5 100

%%sep 1 1 500
%%sep 1 1 500
